contributed-vectors/the_sims_freeplay.svg

<svg xmlns="http://www.w3.org/2000/svg" width="192" height="192" fill="none"><path d="M99 10 36 98l63 88 63-88-63-88z" style="fill:#f8c18c"/><path fill="#000" fill-opacity=".15" fill-rule="evenodd" d="m162 98-63 88-63-88h126Z" clip-rule="evenodd" style="fill:#000;fill-opacity:1;opacity:.15"/><path fill="#98DC9A" fill-rule="evenodd" d="m136 98-37.136 88L61 98h75Z" clip-rule="evenodd" style="fill:#f8c18c"/><path fill="#fff" fill-opacity=".5" fill-rule="evenodd" d="M136 98H61l37.864-88L136 98Z" clip-rule="evenodd"/></svg>

<?xml version="1.0" encoding="UTF-8" standalone="no"?>
<svg
   xmlns:dc="http://purl.org/dc/elements/1.1/"
   xmlns:cc="http://creativecommons.org/ns#"
   xmlns:rdf="http://www.w3.org/1999/02/22-rdf-syntax-ns#"
   xmlns:svg="http://www.w3.org/2000/svg"
   xmlns="http://www.w3.org/2000/svg"
   xmlns:sodipodi="http://sodipodi.sourceforge.net/DTD/sodipodi-0.dtd"
   xmlns:inkscape="http://www.inkscape.org/namespaces/inkscape"
   width="192"
   height="192"
   viewBox="0 0 192 192"
   fill="none"
   version="1.1"
   id="svg14"
   sodipodi:docname="the_sims_freeplay.svg"
   inkscape:version="0.92.4 (5da689c313, 2019-01-14)"
   inkscape:export-filename="C:\Users\Admin\Desktop\apks\_apks\delta\android\svg\the_sims_freeplay.png"
   inkscape:export-xdpi="96"
   inkscape:export-ydpi="96">
  <metadata
     id="metadata20">
    <rdf:RDF>
      <cc:Work
         rdf:about="">
        <dc:format>image/svg+xml</dc:format>
        <dc:type
           rdf:resource="http://purl.org/dc/dcmitype/StillImage" />
        <dc:title />
      </cc:Work>
    </rdf:RDF>
  </metadata>
  <defs
     id="defs18" />
  <sodipodi:namedview
     pagecolor="#ffffff"
     bordercolor="#666666"
     borderopacity="1"
     objecttolerance="10"
     gridtolerance="10"
     guidetolerance="10"
     inkscape:pageopacity="0"
     inkscape:pageshadow="2"
     inkscape:window-width="1920"
     inkscape:window-height="1017"
     id="namedview16"
     showgrid="false"
     inkscape:zoom="3.4766083"
     inkscape:cx="-91.601104"
     inkscape:cy="81.75001"
     inkscape:window-x="-8"
     inkscape:window-y="-8"
     inkscape:window-maximized="1"
     inkscape:current-layer="svg14" />
  <path
     style="fill:#f8c18c"
     d="M 99 10 L 36 98 L 99 186 L 162 98 L 99 10 z "
     id="path2" />
  <path
     d="M162 98L99 186L36 98H162Z"
     id="path4"
     clip-rule="evenodd"
     fill-rule="evenodd"
     fill-opacity="0.15"
     fill="black"
     style="fill:#000000;fill-opacity:1;opacity:0.15" />
  <path
     d="M136 98L98.8641 186L61 98H136Z"
     id="path8"
     style="fill:#f8c18c"
     clip-rule="evenodd"
     fill-rule="evenodd"
     fill="#98DC9A" />
  <path
     d="M136 98H61L98.8641 10L136 98Z"
     id="path12"
     clip-rule="evenodd"
     fill-rule="evenodd"
     fill-opacity="0.5"
     fill="white" />
</svg>
